X:1
T: The Bride of Kildare
C:
R:Reel
Q: 232
K:Bm
M:4/4
L:1/8
|:((3ABc) |d2Ac d2Ac|df ed dc BA|Ee ((3eee) ed ef|ge fd ed Bd|d2Ac d2Ac|df ed dc BA|G2eG F2dE|EF GA B2dB|
AD ((3FED) AD BD|AD ((3FED) FA dc|BG ((3FED) BE dE|BE ((3FED) FA ag|fg ef dc BA|Bc dB AF DF|G2eG F2dF|EF GA B2ag|
fd ad fd df|fd ad gf ed|g2ba gf eF|GF EF G2g2|fd ec dc BA|Bc dB AF DF|G2eG F2dF|EF GA B2 ((3ABc)|
d2Ac d2Ac|df ed dc BA|Ee ((3eee) ed ef|ge fd ed Bd|d2Ac d2Ac|df ed dc BA|G2eG F2dE|EF GA B2||
